X:1
T:One Morning in May
M:3/4
L:1/4
K:F
 F| F A f| d c F| G A G| F2 f| g f g| a f3/2 c/2| d c d| f2 z| g f g|\
 a f3/2 c/2| d c d| f2 F| A c f| d c A| G A G| F2||
